img/icon-brokenheart.svg

<svg width="48" height="49" viewBox="0 0 48 49" fill="none" xmlns="http://www.w3.org/2000/svg">
<g clip-path="url(#clip0)">
<path d="M46.9981 27.0348L43.7746 23.8112C43.4085 23.4454 42.8151 23.4452 42.4488 23.8112C42.0827 24.1773 42.0827 24.7709 42.4488 25.137L45.6723 28.3606C46.279 28.9674 46.279 29.9545 45.6732 30.5603C45.0659 31.1659 44.0779 31.1657 43.4718 30.5613L31.6823 18.769L33.9207 16.6088L36.4935 19.1816C36.6766 19.3646 36.9165 19.4562 37.1564 19.4562C37.3963 19.4562 37.6362 19.3646 37.8193 19.1816C38.1854 18.8155 38.1854 18.2219 37.8193 17.8558L35.2701 15.3066L35.45 15.133C38.5791 12.1157 38.6685 7.11377 35.6492 3.98233C34.1914 2.47183 32.2254 1.61964 30.1135 1.58261C28.0017 1.54661 26.0069 2.32811 24.4973 3.78536L23.9995 4.26471L23.5027 3.78611C21.9923 2.32821 20.0003 1.54783 17.887 1.58271C15.7758 1.61974 13.8103 2.47192 12.3524 3.98242C10.8947 5.49283 10.1126 7.48774 10.1504 9.59955C10.1882 11.7113 11.041 13.6764 12.5513 15.1327L12.7302 15.3054L1.00005 27.0357C-0.334576 28.3741 -0.332982 30.5503 1.00361 31.8871C1.6713 32.5548 2.54889 32.8886 3.42705 32.8886C4.01449 32.8886 4.60183 32.7384 5.12702 32.4395V44.6897C5.12702 46.1943 6.35102 47.4184 7.85561 47.4184H40.1433C41.6478 47.4184 42.8719 46.1944 42.8719 44.6897V32.4395C43.3967 32.738 43.9839 32.8881 44.5716 32.8881C45.4501 32.8881 46.3289 32.5544 46.998 31.8871C47.6441 31.241 48 30.3792 48 29.461C48.0001 28.5427 47.6442 27.6811 46.9981 27.0348ZM12.025 9.5658C11.9962 7.95489 12.5917 6.43427 13.7015 5.28433C14.8115 4.13439 16.3095 3.48555 17.9198 3.45724C17.9564 3.45658 17.9926 3.4563 18.0292 3.4563C19.5987 3.4563 21.0763 4.05011 22.2012 5.13583L23.3492 6.24142C23.3493 6.24152 23.3495 6.24161 23.3496 6.2417L24.4382 7.2932L21.5601 10.071C21.3775 10.2472 21.2741 10.4898 21.2736 10.7435C21.273 10.9972 21.3753 11.2403 21.557 11.4172L24.4147 14.2L21.5573 16.9804C21.1862 17.3414 21.178 17.935 21.5392 18.306C21.7229 18.4949 21.9669 18.5897 22.2112 18.5897C22.4469 18.5897 22.6826 18.5015 22.8648 18.3241L26.4125 14.872C26.5939 14.6956 26.6961 14.4534 26.6962 14.2003C26.6963 13.9473 26.594 13.705 26.4128 13.5285L23.558 10.7485L26.439 7.96792C26.622 7.7913 26.7254 7.54792 26.7255 7.29358C26.7256 7.03924 26.6222 6.79586 26.4393 6.61914L25.35 5.56708L25.7986 5.13508C26.9488 4.02489 28.467 3.42836 30.0806 3.45724C31.6917 3.48555 33.1902 4.1343 34.3 5.28405C36.6013 7.67083 36.5335 11.4835 34.1484 13.7835L23.9995 23.5778L13.8531 13.7832C12.7031 12.6744 12.0538 11.1766 12.025 9.5658ZM2.32942 30.5613C1.72277 29.9546 1.72202 28.9672 2.3268 28.3607L14.0794 16.6077L16.3188 18.7695L4.52824 30.5605C3.92083 31.166 2.93449 31.1665 2.32942 30.5613ZM16.6066 34.3075C15.4472 34.3075 14.504 33.3655 14.504 32.2075C14.504 31.048 15.4472 30.1048 16.6066 30.1048C17.7645 30.1048 18.7065 31.048 18.7065 32.2075C18.7065 33.3655 17.7645 34.3075 16.6066 34.3075ZM14.2376 35.3985C14.8998 35.8907 15.7197 36.1825 16.6066 36.1825C17.4931 36.1825 18.3127 35.8906 18.9745 35.3981C19.8686 35.8824 20.4365 36.5505 20.4365 37.8494V45.5435H12.7739V37.8494C12.7739 36.5514 13.3423 35.8831 14.2376 35.3985ZM31.3951 34.3075C30.2357 34.3075 29.2925 33.3655 29.2925 32.2075C29.2925 31.048 30.2357 30.1048 31.3951 30.1048C32.553 30.1048 33.4951 31.048 33.4951 32.2075C33.4951 33.3655 32.553 34.3075 31.3951 34.3075ZM29.0262 35.3985C29.6885 35.8908 30.5082 36.1825 31.3951 36.1825C32.2817 36.1825 33.1013 35.8906 33.7631 35.398C34.6589 35.8827 35.2277 36.551 35.2277 37.8494V45.5435H27.5625V37.8494C27.5625 36.5514 28.1309 35.8831 29.0262 35.3985ZM40.1433 45.5434H37.1026V37.8493C37.1026 35.7367 36.0635 34.6058 34.9756 33.9329C35.2283 33.4107 35.37 32.8254 35.37 32.2075C35.37 30.0142 33.5869 28.2297 31.3951 28.2297C29.2018 28.2297 27.4175 30.0142 27.4175 32.2075C27.4175 32.8258 27.5596 33.4116 27.8127 33.934C26.7255 34.607 25.6876 35.7379 25.6876 37.8493V45.5434H22.3115V37.8493C22.3115 35.7364 21.2738 34.6056 20.1869 33.933C20.4396 33.4108 20.5814 32.8255 20.5814 32.2075C20.5814 30.0142 18.7983 28.2297 16.6066 28.2297C14.4133 28.2297 12.629 30.0142 12.629 32.2075C12.629 32.8258 12.7711 33.4116 13.0242 33.934C11.9369 34.6069 10.8989 35.7378 10.8989 37.8492V45.5433H7.85561C7.38499 45.5433 7.00202 45.1603 7.00202 44.6896V30.7382L17.6681 20.0719L23.3485 25.5551C23.53 25.7305 23.7648 25.8182 23.9995 25.8182C24.2343 25.8182 24.469 25.7305 24.6505 25.5552L30.3329 20.0713L40.997 30.7379V44.6897C40.997 45.1605 40.614 45.5434 40.1433 45.5434Z" fill="url(#paint0_linear)"/>
<path d="M40.1341 22.4364C39.8957 22.4364 39.6575 22.3455 39.4751 22.1632L39.4698 22.1578C39.1037 21.7917 39.1037 21.1981 39.4698 20.832C39.8359 20.466 40.4294 20.466 40.7956 20.832C41.1617 21.1981 41.1644 21.7943 40.7982 22.1605C40.6145 22.3441 40.3742 22.4364 40.1341 22.4364Z" fill="url(#paint1_linear)"/>
</g>
<defs>
<linearGradient id="paint0_linear" x1="24.0001" y1="1.58142" x2="24.0001" y2="47.4184" gradientUnits="userSpaceOnUse">
<stop stop-color="#C45ED3"/>
<stop offset="1" stop-color="#FBA2B8"/>
</linearGradient>
<linearGradient id="paint1_linear" x1="40.1333" y1="20.5575" x2="40.1333" y2="22.4364" gradientUnits="userSpaceOnUse">
<stop stop-color="#C45ED3"/>
<stop offset="1" stop-color="#FBA2B8"/>
</linearGradient>
<clipPath id="clip0">
<rect width="48" height="48" fill="white" transform="translate(0 0.5)"/>
</clipPath>
</defs>
</svg>

<svg xmlns="http://www.w3.org/2000/svg" width="48" height="49" fill="none"  ><g clip-path="url(#C)"><path d="M46.998 27.035l-3.224-3.224a.94.94 0 0 0-1.326 0 .94.94 0 0 0 0 1.326l3.224 3.224a1.56 1.56 0 0 1 .001 2.2c-.607.606-1.595.605-2.201.001L31.682 18.769l2.238-2.16 2.573 2.573c.183.183.423.275.663.275s.48-.092.663-.275a.94.94 0 0 0 0-1.326l-2.549-2.549.18-.174c3.129-3.017 3.218-8.019.199-11.151a7.83 7.83 0 0 0-5.536-2.4c-2.112-.036-4.107.746-5.616 2.203L24 4.265l-.497-.479C21.992 2.328 20 1.548 17.887 1.583s-4.077.889-5.535 2.4A7.83 7.83 0 0 0 10.15 9.6c.038 2.112.891 4.077 2.401 5.533l.179.173L1 27.036a3.44 3.44 0 0 0 .004 4.851c.668.668 1.545 1.001 2.423 1.001.587 0 1.175-.15 1.7-.449v12.25c0 1.505 1.224 2.729 2.729 2.729h32.288c1.504 0 2.729-1.224 2.729-2.729V32.44a3.44 3.44 0 0 0 1.7.449c.879 0 1.757-.334 2.426-1.001.646-.646 1.002-1.508 1.002-2.426s-.356-1.78-1.002-2.426zM12.025 9.566c-.029-1.611.567-3.132 1.676-4.281s2.608-1.799 4.218-1.827l.109-.001c1.57 0 3.047.594 4.172 1.68l2.237 2.157-2.878 2.778c-.183.176-.286.419-.287.672s.102.497.283.674l2.858 2.783-2.857 2.78c-.371.361-.379.955-.018 1.326.184.189.428.284.672.284.236 0 .471-.088.654-.266l3.548-3.452c.181-.176.284-.419.284-.672s-.102-.495-.283-.672l-2.855-2.78 2.881-2.781a.94.94 0 0 0 .287-.674c0-.254-.103-.498-.286-.674L25.35 5.567l.449-.432c1.15-1.11 2.668-1.707 4.282-1.678s3.11.677 4.219 1.827a6.02 6.02 0 0 1-.152 8.499L24 23.578l-10.146-9.795c-1.15-1.109-1.799-2.607-1.828-4.217zM2.329 30.561a1.56 1.56 0 0 1-.003-2.201l11.753-11.753 2.239 2.162L4.528 30.561a1.56 1.56 0 0 1-2.199.001zm14.277 3.746c-1.159 0-2.103-.942-2.103-2.1s.943-2.103 2.103-2.103 2.1.943 2.1 2.103-.942 2.1-2.1 2.1zm-2.369 1.091a3.96 3.96 0 0 0 2.369.784c.886 0 1.706-.292 2.368-.784.894.484 1.462 1.152 1.462 2.451v7.694h-7.663v-7.694c0-1.298.568-1.966 1.464-2.451zm17.158-1.091c-1.159 0-2.103-.942-2.103-2.1s.943-2.103 2.103-2.103 2.1.943 2.1 2.103-.942 2.1-2.1 2.1zm-2.369 1.091a3.96 3.96 0 0 0 2.369.784c.887 0 1.706-.292 2.368-.784.896.485 1.465 1.153 1.465 2.451v7.694h-7.665v-7.694c0-1.298.568-1.966 1.464-2.451zm11.117 10.145h-3.041v-7.694c0-2.113-1.039-3.243-2.127-3.916a3.95 3.95 0 0 0 .394-1.725c0-2.193-1.783-3.978-3.975-3.978s-3.978 1.784-3.978 3.978a3.95 3.95 0 0 0 .395 1.726c-1.087.673-2.125 1.804-2.125 3.915v7.694h-3.376v-7.694c0-2.113-1.038-3.244-2.125-3.916a3.95 3.95 0 0 0 .394-1.725 3.98 3.98 0 0 0-3.975-3.978c-2.193 0-3.978 1.784-3.978 3.978a3.95 3.95 0 0 0 .395 1.726c-1.087.673-2.125 1.804-2.125 3.915v7.694H7.856c-.471 0-.854-.383-.854-.854V30.738l10.666-10.666 5.68 5.483c.181.175.416.263.651.263s.47-.088.651-.263l5.682-5.484 10.664 10.667V44.69c0 .471-.383.854-.854.854z" fill="url(#A)"/><path d="M40.134 22.436a.93.93 0 0 1-.659-.273l-.005-.005a.94.94 0 0 1 0-1.326.94.94 0 0 1 1.326 0 .94.94 0 0 1 .003 1.328c-.184.184-.424.276-.664.276z" fill="url(#B)"/></g><defs><linearGradient id="A" x1="24" y1="1.581" x2="24" y2="47.418" gradientUnits="userSpaceOnUse"><stop stop-color="#c45ed3"/><stop offset="1" stop-color="#fba2b8"/></linearGradient><linearGradient id="B" x1="40.133" y1="20.558" x2="40.133" y2="22.436" gradientUnits="userSpaceOnUse"><stop stop-color="#c45ed3"/><stop offset="1" stop-color="#fba2b8"/></linearGradient><clipPath id="C"><path fill="#fff" transform="translate(0 .5)" d="M0 0h48v48H0z"/></clipPath></defs></svg>
